svgs/thin/island-tropical.svg

<svg xmlns="http://www.w3.org/2000/svg" viewBox="0 0 448 512"><!--! Font Awesome Pro 6.0.0-alpha3 by @fontawesome - https://fontawesome.com License - https://fontawesome.com/license (Commercial License) --><path d="M328.6 32c-26.15 0-51.48 7.375-72.3 20.88C235.1 20.5 195.1 0 151.8 0c-60.07 0-110.2 37.13-119.2 88.53c-.8273 6 .9054 12 4.73 16.44C41.22 109.4 46.94 112 53.04 112h68.37C91.7 152.9 87.9 205.3 113.7 242.1c3.668 4.875 9.147 7.875 14.94 8.281c.5151 .0313 1.03 .0625 1.53 .0625c5.385 0 10.61-2.188 14.55-6.156l71.19-71.27c1.731 67.04-8.976 132.8-18.75 177.3C197 350.9 197.5 351.4 197.5 352H136.3c-67.53 0-125.1 50.44-135.9 117.3c-1.592 10.78 1.577 21.69 8.679 29.94C16.08 507.3 26.19 512 36.87 512h310.4c10.66 0 20.79-4.656 27.77-12.75c7.102-8.25 10.27-19.16 8.663-29.97c-7.139-48.08-39.56-87.31-82.23-105.8C310 280.4 295.6 194 284.5 144h142.9c6.103 0 11.82-2.562 15.67-7.031c3.824-4.438 5.557-10.44 4.683-16.72C438.8 69.13 388.7 32 328.6 32zM367.9 471.6c.921 6.219-.8897 12.47-4.948 17.16C358.9 493.4 353.3 496 347.2 496H36.87c-6.103 0-11.68-2.562-15.69-7.219c-4.059-4.688-5.869-10.97-4.964-17.12C25.02 412.6 76.66 368 136.3 368h111.4C307.4 368 359.1 412.6 367.9 471.6zM285.8 358C273.6 354.4 260.1 352 247.8 352h-34.61c10.49-48.22 22.05-120.1 18.42-192.4c-.0312-.625-.5639-.9766-.722-1.543L244.9 144h23.28C278.1 191.7 293.6 276.4 285.8 358zM430.1 126.5C430.2 127.5 428.9 128 427.4 128h-43.33V104c0-4.406-3.575-8-7.992-8s-7.992 3.594-7.992 8L368 128h-129.8L188.1 177.4L173.1 162.3c-3.122-3.125-8.179-3.125-11.3 0s-3.122 8.188 0 11.31L177.7 188.7L133.4 232.1C132.4 233.9 131.3 234.4 129.8 234.4C128.6 234.3 127.3 233.6 126.6 232.7C102.4 198 109.7 146.2 144.2 109.5L156.8 96H112.4V72c0-4.406-3.575-8-7.992-8C99.95 64 96.37 67.59 96.37 72V96H53.04C51.56 96 50.29 95.47 49.48 94.53C48.65 93.56 48.28 92.16 48.42 91C55.93 48.25 100.4 16 151.8 16c40.8 0 78.1 20.47 95 52.16l4.433 8.281l7.461-5.688C277.1 56.06 302.8 48 328.6 48c51.43 0 95.89 32.25 103.4 74.72C432.2 124.2 431.8 125.6 430.1 126.5z"/></svg>

<svg xmlns="http://www.w3.org/2000/svg" viewBox="0 0 448 512"><!-- Font Awesome Pro 6.0.0-alpha2 by @fontawesome - https://fontawesome.com License - https://fontawesome.com/license (Commercial License) --><path d="M328.644 32C302.498 32 277.164 39.375 256.34 52.875C235.095 20.5 195.088 0 151.818 0C91.751 0 41.66 37.125 32.637 88.531C31.81 94.531 33.543 100.531 37.367 104.969C41.223 109.438 46.936 112 53.039 112H121.41C91.705 152.875 87.896 205.25 113.714 242.062C117.382 246.938 122.861 249.938 128.653 250.344C129.168 250.375 129.683 250.406 130.182 250.406C135.568 250.406 140.797 248.219 144.731 244.25L215.925 172.984C217.655 240.02 206.949 305.812 197.179 350.281C197.043 350.898 197.476 351.398 197.484 352H136.333C68.805 352 10.362 402.438 0.403 469.312C-1.189 480.094 1.98 491 9.082 499.25C16.075 507.344 26.191 512 36.868 512H347.236C357.897 512 368.028 507.344 375.005 499.25C382.108 491 385.276 480.094 383.669 469.281C376.529 421.203 344.11 381.969 301.441 363.523C310.024 280.406 295.632 194.031 284.543 144H427.423C433.526 144 439.239 141.438 443.095 136.969C446.919 132.531 448.652 126.531 447.778 120.25C438.802 69.125 388.711 32 328.644 32ZM367.856 471.625C368.777 477.844 366.966 484.094 362.908 488.781C358.896 493.438 353.339 496 347.236 496H36.868C30.764 496 25.192 493.438 21.18 488.781C17.121 484.094 15.311 477.813 16.216 471.656C25.02 412.562 76.657 368 136.333 368H247.755C307.446 368 359.083 412.562 367.856 471.625ZM285.837 358.035C273.624 354.438 260.959 352 247.755 352H213.146C223.636 303.781 235.195 231.867 231.568 159.594C231.536 158.969 231.004 158.617 230.846 158.051L244.883 144H268.166C278.951 191.66 293.554 276.359 285.837 358.035ZM430.982 126.531C430.17 127.469 428.906 128 427.423 128H384.09V104C384.09 99.594 380.515 96 376.098 96S368.106 99.594 368.106 104V128H238.264L188.957 177.363L173.952 162.344C170.83 159.219 165.773 159.219 162.651 162.344S159.529 170.531 162.651 173.656L177.655 188.676L133.414 232.969C132.415 233.938 131.275 234.375 129.823 234.406C128.59 234.312 127.341 233.562 126.639 232.656C102.366 198.031 109.749 146.219 144.2 109.469L156.844 96H112.356V72C112.356 67.594 108.782 64 104.364 64C99.946 64 96.372 67.594 96.372 72V96H53.039C51.556 96 50.292 95.469 49.48 94.531C48.653 93.562 48.278 92.156 48.419 91C55.927 48.25 100.384 16 151.818 16C192.621 16 229.913 36.469 246.818 68.156L251.251 76.438L258.713 70.75C277.991 56.062 302.826 48 328.644 48C380.078 48 424.535 80.25 431.996 122.719C432.184 124.156 431.809 125.562 430.982 126.531Z"/></svg>
